icons/svg/emoji-food_16.svg

<?xml version="1.0" encoding="UTF-8"?>
<svg width="16px" height="16px" viewBox="0 0 16 16" version="1.1" xmlns="http://www.w3.org/2000/svg" xmlns:xlink="http://www.w3.org/1999/xlink">
    <!-- Generator: Sketch 59.1 (86144) - https://sketch.com -->
    <title>emoji-food_16</title>
    <desc>Created with Sketch.</desc>
    <g id="New-Icon" stroke="none" stroke-width="1" fill="none" fill-rule="evenodd">
        <g id="emoji-food_16" fill="#171B1F">
            <path d="M12.4429,8.9517 C12.3599,8.9557 11.8039,8.9717 11.1809,8.8267 C11.5599,8.5187 11.8939,8.1687 12.1559,7.7787 C12.3099,7.5487 12.2479,7.2387 12.0189,7.0847 C11.7889,6.9317 11.4799,6.9927 11.3249,7.2217 C10.9779,7.7407 10.4799,8.1847 9.8849,8.5057 C8.6669,9.1617 7.3329,9.1617 6.1149,8.5057 C5.5209,8.1847 5.0229,7.7407 4.6749,7.2217 C4.5219,6.9917 4.2109,6.9307 3.9819,7.0847 C3.7519,7.2387 3.6909,7.5487 3.8439,7.7787 C4.1229,8.1937 4.4819,8.5637 4.8909,8.8847 C4.2219,9.0167 3.6039,8.9577 3.5659,8.9537 C2.1029,8.7397 0.9999,7.4707 0.9999,5.9997 C0.9999,4.3507 2.3369,3.0087 4.0609,3.0087 C4.0669,3.0087 4.0719,3.0087 4.0779,3.0087 L4.2119,3.0237 C4.2319,3.0247 4.2499,3.0167 4.2699,3.0147 C4.3089,3.0137 4.3459,3.0097 4.3839,2.9987 C4.3969,2.9937 4.4089,2.9887 4.4219,2.9827 C4.5159,2.9467 4.6039,2.8907 4.6639,2.8007 C5.4089,1.6727 6.6559,0.9997 7.9999,0.9997 C9.3439,0.9997 10.5909,1.6727 11.3369,2.8007 C11.3449,2.8137 11.3609,2.8197 11.3709,2.8317 C11.4049,2.8737 11.4429,2.9087 11.4879,2.9377 C11.5099,2.9517 11.5299,2.9657 11.5539,2.9757 C11.6009,2.9967 11.6509,3.0067 11.7029,3.0127 C11.7199,3.0147 11.7359,3.0247 11.7539,3.0247 C11.7589,3.0247 11.7629,3.0207 11.7679,3.0207 C11.7749,3.0207 11.7809,3.0237 11.7889,3.0237 L11.9999,2.9997 C13.6539,2.9997 14.9999,4.3457 14.9999,5.9997 C14.9999,7.4677 13.9009,8.7337 12.4429,8.9517 L12.4429,8.9517 Z M3.9999,14.9997 L3.9999,9.9717 C4.5179,9.9707 5.3049,9.8907 6.0109,9.5577 C6.6549,9.8467 7.3209,9.9997 7.9999,9.9997 C8.7209,9.9997 9.4279,9.8267 10.1089,9.5027 C10.7969,9.8207 11.5189,9.9217 11.9999,9.9447 L11.9999,14.9997 L3.9999,14.9997 Z M15.9999,5.9997 C15.9999,3.7947 14.2059,1.9997 11.9999,1.9997 C11.9949,1.9997 11.9879,2.0007 11.9839,2.0007 C11.0399,0.7467 9.5769,-0.0003 7.9999,-0.0003 C6.4229,-0.0003 4.9609,0.7467 4.0169,2.0017 C4.0109,2.0017 4.0049,1.9997 3.9999,1.9997 C1.7949,1.9997 -0.0001,3.7947 -0.0001,5.9997 C-0.0001,7.8177 1.2659,9.3887 2.9999,9.8417 L2.9999,15.4997 C2.9999,15.7767 3.2239,15.9997 3.4999,15.9997 L12.4999,15.9997 C12.7759,15.9997 12.9999,15.7767 12.9999,15.4997 L12.9999,9.8417 C14.7349,9.3887 15.9999,7.8177 15.9999,5.9997 L15.9999,5.9997 Z" id="fill"></path>
        </g>
    </g>
</svg>

<svg width="16" height="16" xmlns="http://www.w3.org/2000/svg"><path d="M12.443 8.952c-.083.004-.64.02-1.262-.125.379-.308.713-.658.975-1.048a.5.5 0 00-.831-.557 4.023 4.023 0 01-1.44 1.284c-1.218.656-2.552.656-3.77 0a4.04 4.04 0 01-1.44-1.284.5.5 0 00-.831.557c.279.415.638.785 1.047 1.106a4.983 4.983 0 01-1.325.069A3.008 3.008 0 011 6c0-1.65 1.337-2.991 3.06-2.991h.018l.134.015c.02 0 .038-.007.058-.01A.442.442 0 004.384 3a.615.615 0 00.038-.016.492.492 0 00.242-.182 3.99 3.99 0 016.673 0c.008.013.024.019.034.03a.491.491 0 00.117.107c.022.014.042.028.066.038a.501.501 0 00.149.037c.017.002.033.012.05.012.006 0 .01-.004.015-.004.007 0 .013.003.02.003L12 3c1.654 0 3 1.346 3 3 0 1.468-1.1 2.734-2.557 2.952zM4 15V9.972c.518-.001 1.305-.081 2.01-.414A4.83 4.83 0 008 10c.72 0 1.428-.173 2.109-.497.688.318 1.41.419 1.89.442V15H4zm12-9c0-2.205-1.794-4-4-4h-.016A4.98 4.98 0 008 0a4.976 4.976 0 00-3.983 2.002L4 2C1.795 2 0 3.795 0 6c0 1.818 1.266 3.389 3 3.842V15.5a.5.5 0 00.5.5h9a.5.5 0 00.5-.5V9.842c1.735-.453 3-2.024 3-3.842z" fill="#171B1F" fill-rule="evenodd"/></svg>
